X:2789
T:Goin' down that road
C:anon.
O:USA
Z:Transcribed by Frank Nordberg - http://www.musicaviva.com
F:http://abc.musicaviva.com/tunes/usa/goin-down-that-road.abc
M:4/4
L:1/4
Q:1/4=148
K:D
A|"D"FA2A|"D"B2AA|"D"F2z2|"D"z2zF|
w:I'm goin' down that road feel-in' bad, I'm
"G"ED2D|"G"E2DB,|"D"D2z2|z2DD|
w:goin' down that road feel-in' bad, yes, I'm
"G"B,D2D|"G"E2DE|"D"F2"D/C#"A2|
w:goin' down that road feel-in' bad, Lord,
"Bm"B<AFG|"Em7"AA>AB|"A7"AFEE|"D"D2z2|"D"z2z|]
w:Lord,_ and I ain't gon-na be treat-ed this a-way.
W:
W:  I'm goin' down that road feelin' bad,
W:  I'm goin' down that road feelin' bad.
W:  Yes, I'm goin' down that road feelin' bad, Lord, Lord,
W:  and I ain't gonna be treated this away.
W:
W:I'm goin' where the climate suits my clothes,
W:I'm goin' where the climate suits my clothes.
W:Yes, I'm goin' where the climate suits my clothes, Lord, Lord,
W:and I ain't gonna be treated this away.
W:
W:  I'm goin' down that road feelin' bad...
W:
W:I'm goin' where the water tastes like wine,
W:I'm goin' where the water tastes like wine.
W:Yes, I'm goin' where the water tastes like wine.
W:and I ain't gonna be treated this away.
W:
W:  I'm goin' down that road feelin' bad...
W:
W:I'm goin' where the chilly winds don't blow,
W:I'm goin' where the chilly winds don't blow.
W:Yes, I'm goin' where the chilly winds don't blow, Lord, Lord,
W:and I ain't gonna be treated this away.
W:
W:  I'm goin' down that road feelin' bad...
W:
W:
W:  From Musica Viva - http://www.musicaviva.com
W:  the Internet center for free sheet music downloads.


